_includes/icons/color-credit-card.svg

<svg fill="#666" height="50" viewBox="0 0 48 48" width="50" xmlns="http://www.w3.org/2000/svg"><path d="m45 35c0 2.207031-1.789062 4-4 4h-34c-2.210937 0-4-1.792969-4-4v-22c0-2.210937 1.789063-4 4-4h34c2.210938 0 4 1.789063 4 4z" fill="#64b5f6"/><path d="m3 14h42v6h-42z" fill="#37474f"/><path d="m5 22h38v5h-38z" fill="#e3f2fd"/></svg>

<svg xmlns="http://www.w3.org/2000/svg" viewBox="0 0 48 48" width="50" height="50" fill="#666"><path d="M 45 35 C 45 37.207031 43.210938 39 41 39 L 7 39 C 4.789063 39 3 37.207031 3 35 L 3 13 C 3 10.789063 4.789063 9 7 9 L 41 9 C 43.210938 9 45 10.789063 45 13 Z" fill="#64b5f6"/><path d="M 3 14 L 45 14 L 45 20 L 3 20 Z" fill="#37474f"/><path d="M 5 22 L 43 22 L 43 27 L 5 27 Z" fill="#e3f2fd"/></svg>
